app/img/icomoon/eye.svg

<svg width="38" height="26" viewBox="0 0 38 26" fill="none" xmlns="http://www.w3.org/2000/svg">
<path d="M37.7585 12.2604C37.419 11.796 29.3304 0.889648 18.9998 0.889648C8.66921 0.889648 0.580243 11.796 0.241137 12.26C-0.0803791 12.7005 -0.0803791 13.2981 0.241137 13.7386C0.580243 14.203 8.66921 25.1094 18.9998 25.1094C29.3304 25.1094 37.419 14.203 37.7585 13.739C38.0805 13.2985 38.0805 12.7005 37.7585 12.2604ZM18.9998 22.6039C11.3902 22.6039 4.79951 15.3652 2.84852 12.9987C4.79699 10.6301 11.3739 3.39513 18.9998 3.39513C26.609 3.39513 33.1993 10.6327 35.1511 13.0004C33.2026 15.3689 26.6257 22.6039 18.9998 22.6039Z" fill="white"/>
<path d="M18.9999 5.48301C14.8554 5.48301 11.4834 8.855 11.4834 12.9995C11.4834 17.1441 14.8554 20.5161 18.9999 20.5161C23.1444 20.5161 26.5164 17.1441 26.5164 12.9995C26.5164 8.855 23.1444 5.48301 18.9999 5.48301ZM18.9999 18.0105C16.2367 18.0105 13.9889 15.7626 13.9889 12.9995C13.9889 10.2364 16.2368 7.98857 18.9999 7.98857C21.763 7.98857 24.0108 10.2364 24.0108 12.9995C24.0108 15.7626 21.763 18.0105 18.9999 18.0105Z" fill="white"/>
</svg>

<svg width="38" height="26" fill="none" xmlns="http://www.w3.org/2000/svg"><path d="M37.758 12.26C37.42 11.796 29.33.89 19 .89 8.67.89.58 11.796.24 12.26a1.254 1.254 0 000 1.479c.34.464 8.428 11.37 18.759 11.37 10.33 0 18.419-10.906 18.758-11.37a1.252 1.252 0 000-1.479zM19 22.604c-7.61 0-14.2-7.239-16.151-9.605 1.948-2.369 8.525-9.604 16.15-9.604 7.61 0 14.2 7.238 16.152 9.605-1.948 2.369-8.525 9.604-16.151 9.604z" fill="#fff"/><path d="M19 5.483c-4.145 0-7.517 3.372-7.517 7.516 0 4.145 3.372 7.517 7.517 7.517 4.144 0 7.516-3.372 7.516-7.516 0-4.145-3.372-7.517-7.516-7.517zm0 12.527A5.017 5.017 0 0113.989 13a5.017 5.017 0 015.01-5.011 5.016 5.016 0 015.012 5.01A5.017 5.017 0 0119 18.01z" fill="#fff"/></svg>
